X: 29
T: WILLIE'S DROWNED IN YARROW
O: Original collected by Lucy Broadwood
O: Adaptation by Pat Shaw
S: "Community Dances Manual 6", EFDSS, Jack Hamilton ed., 1981 p.16
R: waltz
Z: 2010 John Chambers <jc:trillian.mit.edu>
M: 3/4
L: 1/8
K: D
A2 |\
"D"d4 d2 | "D"f3 e d2 | "G"B d3 B2 | "A7"A6 |\
"D"f4 f2 | "G"g2 a2 b2 | "D"a6 | "A7"f4 e2 |
"Bm"d3 d d2 | "Bm"f3 e d2 | "Em"B d3 B2 | "A7"A4 A2 |\
"G"g4 b2 | "D"a2 f2 d2 | "A7"e6 | "D"d4 ||
d2 |\
"G"g4 b2 | "D"a2 f2 d2 | "G"e2 d2 B2 | "A7"A4 A2 |\
"G"g2 b2 | "D"a2 f2 d2 | "E7"f3 g f2 | "A7"e4 A2 |
"D"d3 d d2 | "D"f3 e d2 | "G"B d3 B2 | "D"A4 A2 |\
"G"g3 a b2 | "D"a2 f2 d2 | "A7"e6 | "D"d4 |]
